X:1
T:Title
%%score { ( 1 3 ) | 2 }
L:1/8
M:3/4
K:G
V:1 treble nm="Grand Piano"
V:3 treble 
V:2 bass 
V:1
 z6[Q:1/4=108] | [B,DG]4 [DGB]2 | [Gd]4 [DG]2 | [EGc]4 [EGe]2 | [DGd]4 [DGB]2 | [FAd]4 [FAc]2 | %6
 B2 A2 G2 | [CDA]4 [CF]2 |[M:2/4] [G,B,DG]4 |] %9
V:2
 z2 z2 G2 | G,,2 D,2 G,2 | B,,2 D,2 B,2 | C,2 G,2 C2 | G,,2 D,2 G,2 | D,,2 A,,2 D,2 | %6
 G,,2 D,2 B,2 | D,,2 D,2 A,2 |[M:2/4] G,,4 |] %9
V:3
 x6 | x6 | x6 | x6 | x6 | x6 | D6 | x6 |[M:2/4] x4 |] %9

